packages/core/src/svgs/tokens/branded/BRIDGE.svg

<svg width="24" height="24" viewBox="0 0 24 24" fill="none" xmlns="http://www.w3.org/2000/svg">
<path d="M16.5448 10.4807L15.0264 11.9992L6.54688 3.52594V3.50719L8.04656 2.00751H8.07155L16.5448 10.4807Z" fill="#0050FF"/>
<path d="M17.4567 3.51343L15.9446 2.00751H15.9321L12.7578 5.18184V5.19433L14.2637 6.70651H14.2825L17.4567 3.52594V3.51343Z" fill="#1A1A1E"/>
<path d="M7.45279 10.4745L5.94061 11.9992L2.01644 8.07499L2.01332 8.07074L2.01221 8.06561L2.01332 8.06046L2.01644 8.05624L3.51612 6.55655C3.52017 6.55512 3.52457 6.55512 3.52861 6.55655H3.53487L7.45904 10.4807L7.45279 10.4745Z" fill="#0050FF"/>
<path d="M18.0633 12.0056L16.5449 13.5177L14.2767 15.786H14.2704L12.7645 14.2862L12.7583 14.2738V14.2613L15.0328 11.9993L20.4753 6.55042C20.4788 6.54735 20.4832 6.54565 20.4879 6.54565C20.4925 6.54565 20.4969 6.54735 20.5004 6.55042L22 8.0501V8.07509L18.0758 12.0117L18.0633 12.0056ZM8.97777 11.9993L7.46557 13.524L3.5289 17.4481L3.52266 17.4499L3.51641 17.4481L2.00423 15.9484L2.00111 15.9442L2 15.939L2.00111 15.9339L2.00423 15.9297L5.92841 11.993L7.44684 10.4747L9.71508 8.22507V8.21883L9.72134 8.21715L9.72761 8.21883L11.2336 9.72479V9.73719L8.97151 12.0056L8.97777 11.9993Z" fill="#1A1A1E"/>
<path d="M8.97777 11.9992L17.4509 20.4724V20.4912L15.9513 21.9908L15.9451 21.9925L15.9388 21.9908L7.46558 13.5239L8.97777 11.9992ZM18.0633 12.0055L22 15.9359V15.9545L20.4941 17.4543L20.4879 17.456L20.4816 17.4543L16.5449 13.5239L18.0572 12.0116H18.0696L18.0633 12.0055Z" fill="#0050FF"/>
<path d="M6.5466 20.4724L9.72091 17.2981L9.72514 17.2949L9.73024 17.2939L9.73549 17.2949L9.73972 17.2981L11.2393 18.804H11.2456V18.8102L11.2473 18.8165L11.2456 18.8228L8.07127 21.9908H8.05878L6.5466 20.4912V20.4849L6.54492 20.4787L6.5466 20.4724Z" fill="#1A1A1E"/>
</svg>

<svg xmlns="http://www.w3.org/2000/svg" width="24" height="24" fill="none" viewBox="0 0 24 24">
    <path fill="#0050FF" d="M16.545 10.48 15.026 12l-8.48-8.474v-.019l1.5-1.5h.026z"/>
    <path fill="#1A1A1E" d="m17.457 3.513-1.512-1.505h-.013l-3.174 3.174v.012l1.506 1.513h.019l3.174-3.181z"/>
    <path fill="#0050FF" d="M7.453 10.475 5.94 11.999 2.016 8.075l-.003-.004V8.06l.003-.004 1.5-1.5a.02.02 0 0 1 .013 0h.006l3.924 3.925z"/>
    <path fill="#1A1A1E" d="m18.063 12.006-1.518 1.512-2.268 2.268h-.007l-1.505-1.5-.007-.012v-.013L15.033 12l5.442-5.449a.02.02 0 0 1 .025 0l1.5 1.5v.025l-3.924 3.937zm-9.085-.007-1.512 1.525-3.937 3.924-.006.002-.007-.002-1.512-1.5-.003-.004L2 15.94l.001-.005.003-.004 3.924-3.937 1.519-1.518 2.268-2.25V8.22l.006-.002.007.002 1.506 1.506v.012l-2.262 2.269z"/>
    <path fill="#0050FF" d="m8.978 12 8.473 8.472v.02l-1.5 1.499-.006.002-.006-.002-8.473-8.467zm9.085.005L22 15.936v.02l-1.506 1.5-.006.001-.006-.002-3.937-3.93 1.512-1.512h.013z"/>
    <path fill="#1A1A1E" d="m6.547 20.472 3.174-3.174.004-.003.005-.001h.005l.005.004 1.5 1.506h.006v.006l.001.007-.001.006L8.07 21.99h-.01l-1.512-1.5v-.006l-.002-.006z"/>
</svg>
